X:1
T:Title
%%score [ ( 1 2 ) ( 3 4 ) ]
L:1/8
Q:1/4=240
M:4/4
K:Ab
V:1 treble nm="Midi_74"
V:2 treble 
V:3 bass nm="Midi_74"
V:4 bass 
V:1
"^W. Crotch\n(1775-1847)" E8 | A4 G4 | F8 || G8 | A4 B4 | c4 d4 | (c4 B4) || B8 | e4 d4 | c8 || %10
 (B6 A2) | G4 (A2 B2) | c4 B4 | A8 |] %14
V:2
 C8 | E4 C4 | D8 || D8 | C4 E4 | E4 F4 | E8 || E8 | E4 E4 | E8 || F8 | E4 (E2 F2) | E4 D4 | C8 |] %14
V:3
 A,8 | A,4 A,4 | A,8 || B,8 | A,4 G,4 | A,4 A,4 | (A,4 G,4) || G,8 | B,4 G,4 | A,8 || (D6 C2) | %11
 B,4 A,4 | A,4 G,4 | A,8 |] %14
V:4
 A,,8 | C,4 A,,4 | D,8 || B,,8 | F,4 E,4 | A,4 D,4 | E,8 || E,8 | G,4 E,4 | A,8 || D,8 | %11
 D,4 (C,2 D,2) | E,4 E,4 | A,,8 |] %14

